X:9
T:Adiu, paure carnavas
T:Adieu pauvre Carnaval
M:2/4
L:1/8
Q:"Allegro mosso"
K:Am
cB A2 | c2 ee | (dc) B2 | cB A2 | (cB) AG | A2z2 :|
cd e2 | e2 fe | e2d2 | ed c2 | e2dc | B2z2 |
cB A2 | c2 ee | (dc) B2 | cB A2 | (cB) AG | A2z2 |]
%newpage
%%text Exercice prparatoire  l'air qui suit.
